!!!OTL: Ritter Ewald und Mina (3-15), S. 40
!!!id: K1152
**kern
*clefG2
*k[]
*C:
{8e
8f
=1
8g
8cc
4cc
8e
8f
=2
8g
8a
4g}
=3
{8d
8e
=4
4f
4a
8g
8f
=5
4e}
4r
=6
{8g
8g
=7
8.ff
16ee
4dd
8gg
8ff
=8
8.ee
16dd
4cc}
=9
{8g
8g
=10
4a
4dd
8cc
8b
=11
2cc}
=12
{8g
8g
=13
8.ff
16ee
4dd
8gg
8ff
=14
8.ee
16dd
4cc}
=15
{8g
8g
=16
4a
4dd
8cc
8b
=17
2cc}
==
*-
!!!minrhy: 16
!!!meters: 3/4 ]  ZZ[6
!!!cut: Ritter Ewald und Mina (3-15), S. 40
!!!reg: Luxemburg
!!!trd: KINTZELE, Guillaume: An der Ucht, Bd. 3 Luxemburg 1928
!!!rhy1: X_X_  X_X_X__X_X_  X_X_X__   (x2)
!!!rhy2: X_X_  X__X__X_X_  X__0_
!!!key: K1152  16  C 3/4 ]  ZZ[6
!!!mod: HEPTATONIK IONISCH]  AMBITUS[11
!!!kad: 53+1+1+1+1
!!!akz: 55_43_+4+3_6+1_+4+3_6+1_
!!!fot: 'a__b__bs"c__bs"c__
!!!for: 'a__b__c__bv_c__bv_
!!!fok: '/__^a_^a_/__^a_/__
!! PHRAS[AUFTAKTIG]
!!!fkt: Treue, Liebeskummer, Tod
!!!bem: in der Quelle mit einer 2. Stimme versehen
!! KINTZELE
!! PR[30] 2K[8] 2G[14] 3K[0] 3G[1] 4A[2] 4Ü[0] 5A[0] 6K[0] 6G[0]
!! 7K[4] 7G[0] 8A[0] MEHR[0] SI[29] ABS[99] SR[22] SP[7]
!! ST[24] 2k[8] 2g[24] 3k[2] 3g[2] 4d[0] 4ü[4] 5d[0] 6k[0] 6g[0]
!! 7k[0] 7g[0] 8d[0] mehr[0] si[40] dm[-11] sr[32] sp[8]
!! 1F[2] 2F[46] 3F[29] 4F[5] LF[0] 2P[5] 3P[13] 4P[0] TRI[0] DF[6] AB[112]
!! TF[0] U3K[0] U3[0] U4[0] U4Ü[0] U5[8] U6K[0] U6[16] U7K[0] U7[14]
!! N1[22] N2K[0] N2[18] N3K[0] N3[12] N4[8] N4Ü[0] N5[2] N6K[0] N6[0]
!!!n7k: 0] N7[0] O1[0] O2K[0] O2[0] O3K[0] O3[0] HÖ[0
